X:204 
T:Sunday Bells* (reel), The
S:Sheahan MS
F:file ID: cre.4/204sunday
B:CRE4.162: gan ainm
L:1/8
M:4/4
Q:180
R:reel
K:G
dc|B2BA BGG2|ABAF DFdc|B2BA BGG2|ABAF GBdc|
B2 BA BG G2|ABAF DFdc|B2dB GBdB|cAFA BG G2 ||
GABc defd|c2 cA FAcA|GABc d2 ef|gfaf g2 ga|
b2 af gfed|fdcA AF F2|B3B c2Bc|d2 eg fdcA |"final"G8|]

%%%

